src/assets/charts/desserts.svg

<svg xmlns="http://www.w3.org/2000/svg" xmlns:xlink="http://www.w3.org/1999/xlink" id="visChart" x="0" y="0" width="900" height="450" viewBox="0 0 900.000000 600.000000" xml:space="preserve" data-reactroot="">
    <g id="chartContent" transform="translate(450.000000,300.000000)">
        <g transform="translate(0,0)">
            <g transform="translate(0,0)"></g>
            <g transform="translate(0,0)">
                <g transform="translate(0,0)">
                    <g transform="translate(121.85819071,15)">
                        <g transform="translate(0,0)"></g>
                        <g transform="translate(0,0)">
                            <g transform="translate(0,0)">
                                <path id="mark1" class=" mark Shape1 rectangle" style="stroke:none;stroke-width:1;stroke-linecap:round;stroke-linejoin:miter;fill:rgb(166,206,227);text-anchor:start;cursor:pointer;pointer-events:all" d="M 0,-196.80233513 L 0.00288525,-211.49738409 A 211.5,211.5,0,0,1,207.75375342,39.63114863 L 193.3183519,36.87286429 A 196.80233513,196.80233513,0,0,0,0,-196.80233513 Z" data-datum="{&quot;_MARKID&quot;:&quot;rectangle&quot;,&quot;dessert_type&quot;:&quot;cookies&quot;,&quot;percent&quot;:28}"></path>
                            </g>
                            <g transform="translate(0,0)">
                                <path id="mark2" class=" mark Shape1 rectangle" style="stroke:none;stroke-width:1;stroke-linecap:round;stroke-linejoin:miter;fill:rgb(31,120,180);text-anchor:start;cursor:pointer;pointer-events:all" d="M 0,-180.23830012 L 0.00080218,-194.93152921 A 194.93596499,194.93596499,0,0,1,185.39511958,60.23852656 L 171.41613248,55.69448284 A 180.23830012,180.23830012,0,0,0,0,-180.23830012 Z" data-datum="{&quot;_MARKID&quot;:&quot;rectangle&quot;,&quot;dessert_type&quot;:&quot;candy&quot;,&quot;percent&quot;:30}"></path>
                            </g>
                            <g transform="translate(0,0)">
                                <path id="mark3" class=" mark Shape1 rectangle" style="stroke:none;stroke-width:1;stroke-linecap:round;stroke-linejoin:miter;fill:rgb(178,223,138);text-anchor:start;cursor:pointer;pointer-events:all" d="M 0,-163.67426512 L 0.00474463,-178.36767889 A 178.37192998,178.37192998,0,0,1,122.10398794,130.02754144 L 112.03931681,119.31185295 A 163.67426512,163.67426512,0,0,0,0,-163.67426512 Z" data-datum="{&quot;_MARKID&quot;:&quot;rectangle&quot;,&quot;dessert_type&quot;:&quot;cake&quot;,&quot;percent&quot;:38}"></path>
                            </g>
                            <g transform="translate(0,0)">
                                <path id="mark4" class=" mark Shape1 rectangle" style="stroke:none;stroke-width:1;stroke-linecap:round;stroke-linejoin:miter;fill:rgb(51,160,44);text-anchor:start;cursor:pointer;pointer-events:all" d="M 0,-147.11023011 L 0.00042459,-161.80887031 A 161.80789497,161.80789497,0,0,1,77.9515473,141.79333958 L 70.87106163,128.91389133 A 147.11023011,147.11023011,0,0,0,0,-147.11023011 Z" data-datum="{&quot;_MARKID&quot;:&quot;rectangle&quot;,&quot;dessert_type&quot;:&quot;ice cream&quot;,&quot;percent&quot;:42}"></path>
                            </g>
                            <g transform="translate(0,0)">
                                <path id="mark5" class=" mark Shape1 rectangle" style="stroke:none;stroke-width:1;stroke-linecap:round;stroke-linejoin:miter;fill:rgb(251,154,153);text-anchor:start;cursor:pointer;pointer-events:all" d="M 0,-130.5461951 L 0.00333066,-145.24728646 A 145.24385996,145.24385996,0,0,1,0,145.24385996 A 145.24385996,145.24385996,0,0,1,-44.88282183,138.13511922 L -40.34341654,124.15977288 A 130.5461951,130.5461951,0,0,0,40.34099353,-124.1568093 A 130.5461951,130.5461951,0,0,0,0,-130.5461951 Z" data-datum="{&quot;_MARKID&quot;:&quot;rectangle&quot;,&quot;dessert_type&quot;:&quot;pie&quot;,&quot;percent&quot;:55}"></path>
                            </g>
                            <g transform="translate(0,0)">
                                <path id="mark6" class=" mark Shape1 rectangle" opacity="1" style="stroke:none;stroke-width:1;stroke-linecap:round;stroke-linejoin:miter;fill:rgb(227,26,28);fill-opacity:1;text-anchor:start;cursor:pointer;pointer-events:all" d="M 0,-114 L -0.00341106,-128.67518678 A 128.67982496,128.67982496,0,0,1,0,128.77982496 A 128.67982496,128.67982496,0,0,1,-75.63610401,104.10416476 L -67.00002442,92.21537131 A 114,114,0,0,0,66.99703329,-92.21350416 A 114,114,0,0,0,0,-114 Z" data-datum="{&quot;_MARKID&quot;:&quot;rectangle&quot;,&quot;dessert_type&quot;:&quot;cheesecake&quot;,&quot;percent&quot;:60}"></path>
                            </g>
                            <g transform="translate(0,0)">
                                <path id="mark7" class=" mark Shape1 rectangle" style="stroke:none;stroke-width:1;stroke-linecap:round;stroke-linejoin:miter;fill:rgb(253,191,111);text-anchor:start;cursor:pointer;pointer-events:all" d="M 0,-97.41812508 L -0.00446132,-112.1131821 A 112.11578995,112.11578995,0,0,1,0,112.11578995 A 112.11578995,112.11578995,0,0,1,-106.62845286,34.64568367 L -92.65186506,30.10524761 A 97.41812508,97.41812508,0,0,0,92.65014288,-30.10385555 A 97.41812508,97.41812508,0,0,0,0,-97.41812508 Z" data-datum="{&quot;_MARKID&quot;:&quot;rectangle&quot;,&quot;dessert_type&quot;:&quot;brownie&quot;,&quot;percent&quot;:70}"></path>
                            </g>
                            <g transform="translate(0,0)">
                                <path id="mark8" class=" mark Shape1 rectangle" style="stroke:none;stroke-width:1;stroke-linecap:round;stroke-linejoin:miter;fill:rgb(255,127,0);text-anchor:start;cursor:pointer;pointer-events:all" d="M 0,-80.85409007 L 0.00029066,-95.54979403 A 95.55175494,95.55175494,0,0,1,0,95.55175494 A 95.55175494,95.55175494,0,0,1,-77.3029931,-56.16391305 L -65.40917596,-47.52385264 A 80.85409007,80.85409007,0,0,0,65.41233252,47.5248423 A 80.85409007,80.85409007,0,0,0,0,-80.95409007 Z" data-datum="{&quot;_MARKID&quot;:&quot;rectangle&quot;,&quot;dessert_type&quot;:&quot;pastry&quot;,&quot;percent&quot;:85}"></path>
                            </g>
                        </g>
                        <g transform="translate(0,0)">
                            <g transform="translate(0,0)">
                                <g transform="translate(0,-204.15116757)">
                                    <text id="mark1001" class=" mark Text2 text" style="stroke:none;stroke-width:1;stroke-linecap:round;stroke-linejoin:round;fill:rgb(166,206,227);text-anchor:start;font-family:Arial;font-size:14px" x="-93.541015625" y="4.622795573675017" data-datum="{&quot;_MARKID&quot;:&quot;text&quot;,&quot;dessert_type&quot;:&quot;cookies&quot;,&quot;percent&quot;:28}">cookies 28%</text>
                                </g>
                            </g>
                            <g transform="translate(0,0)">
                                <g transform="translate(0,-187.58713256)">
                                    <text id="mark1002" class=" mark Text2 text" style="stroke:none;stroke-width:1;stroke-linecap:round;stroke-linejoin:round;fill:rgb(31,120,180);text-anchor:start;font-family:Arial;font-size:14px" x="-83.4306640625" y="4.622795573675017" data-datum="{&quot;_MARKID&quot;:&quot;text&quot;,&quot;dessert_type&quot;:&quot;candy&quot;,&quot;percent&quot;:30}">candy 30%</text>
                                </g>
                            </g>
                            <g transform="translate(0,0)">
                                <g transform="translate(0,-171.02309755)">
                                    <text id="mark1003" class=" mark Text2 text" style="stroke:none;stroke-width:1;stroke-linecap:round;stroke-linejoin:round;fill:rgb(178,223,138);text-anchor:start;font-family:Arial;font-size:14px" x="-75.64453125" y="4.622795573675017" data-datum="{&quot;_MARKID&quot;:&quot;text&quot;,&quot;dessert_type&quot;:&quot;cake&quot;,&quot;percent&quot;:38}">cake 38%</text>
                                </g>
                            </g>
                            <g transform="translate(0,0)">
                                <g transform="translate(0,-154.45906254)">
                                    <text id="mark1004" class=" mark Text2 text" style="stroke:none;stroke-width:1;stroke-linecap:round;stroke-linejoin:round;fill:rgb(51,160,44);text-anchor:start;font-family:Arial;font-size:14px" x="-106.7548828125" y="4.622795573675017" data-datum="{&quot;_MARKID&quot;:&quot;text&quot;,&quot;dessert_type&quot;:&quot;ice cream&quot;,&quot;percent&quot;:42}">ice cream 42%</text>
                                </g>
                            </g>
                            <g transform="translate(0,0)">
                                <g transform="translate(0,-137.89502753)">
                                    <text id="mark1005" class=" mark Text2 text" style="stroke:none;stroke-width:1;stroke-linecap:round;stroke-linejoin:round;fill:rgb(251,154,153);text-anchor:start;font-family:Arial;font-size:14px" x="-64.7548828125" y="4.622795573675017" data-datum="{&quot;_MARKID&quot;:&quot;text&quot;,&quot;dessert_type&quot;:&quot;pie&quot;,&quot;percent&quot;:55}">pie 55%</text>
                                </g>
                            </g>
                            <g transform="translate(0,0)">
                                <g transform="translate(0,-121.33099252)">
                                    <text id="mark1006" class=" mark Text2 text" style="stroke:none;stroke-width:1;stroke-linecap:round;stroke-linejoin:round;fill:rgb(227,26,28);text-anchor:start;font-family:Arial;font-size:14px" x="-120.7890625" y="4.622795573675017" data-datum="{&quot;_MARKID&quot;:&quot;text&quot;,&quot;dessert_type&quot;:&quot;cheesecake&quot;,&quot;percent&quot;:60}">cheesecake 60%</text>
                                </g>
                            </g>
                            <g transform="translate(0,0)">
                                <g transform="translate(0,-104.76695751)">
                                    <text id="mark1007" class=" mark Text2 text" style="stroke:none;stroke-width:1;stroke-linecap:round;stroke-linejoin:round;fill:rgb(253,191,111);text-anchor:start;font-family:Arial;font-size:14px" x="-95.099609375" y="4.622795573675017" data-datum="{&quot;_MARKID&quot;:&quot;text&quot;,&quot;dessert_type&quot;:&quot;brownie&quot;,&quot;percent&quot;:70}">brownie 70%</text>
                                </g>
                            </g>
                            <g transform="translate(0,0)">
                                <g transform="translate(0,-88.2029225)">
                                    <text id="mark1008" class=" mark Text2 text" style="stroke:none;stroke-width:1;stroke-linecap:round;stroke-linejoin:round;fill:rgb(255,127,0);text-anchor:start;font-family:Arial;font-size:14px" x="-84.1962890625" y="4.622795573675017" data-datum="{&quot;_MARKID&quot;:&quot;text&quot;,&quot;dessert_type&quot;:&quot;pastry&quot;,&quot;percent&quot;:85}">pastry 85%</text>
                                </g>
                            </g>
                        </g>
                    </g>
                    <g transform="translate(0,0)"></g>
                </g>
            </g>
            <g transform="translate(0,0)">
                <g transform="translate(-156.28361858,15)">
                    <text id="mark2001" class=" mark Title" data-datum="{&quot;_MARKID&quot;:&quot;title1&quot;}" style="stroke:none;stroke-width:1;stroke-linecap:round;stroke-linejoin:round;fill:rgb(0,0,0);text-anchor:start;font-family:Impact;font-size:24px" x="-200.77830837408305" y="-41.850154858719">MOST REQUESTED DINER DESSERTS</text>
                </g>
            </g>
            <g transform="translate(0,0)">
                <g transform="translate(-156.28361858,15)">
                    <text id="mark2002" class=" mark Title" data-datum="{&quot;_MARKID&quot;:&quot;title2&quot;}" style="stroke:none;stroke-width:1;stroke-linecap:round;stroke-linejoin:round;fill:rgb(0,0,0);text-anchor:start;font-family:Comic Sans MS;font-size:14px" x="-132.51470693574268" y="-17.02377177455988">Based on Customer Receipts</text>
                </g>
            </g>
        </g>
    </g>
</svg>

<svg xmlns="http://www.w3.org/2000/svg" xmlns:xlink="http://www.w3.org/1999/xlink" id="visChart" x="0" y="0" width="900" height="450" viewBox="0 0 900.000000 600.000000" xml:space="preserve" data-reactroot="">
    <g id="chartContent" transform="translate(450.000000,300.000000)">
        <g transform="translate(0,0)">
            <g transform="translate(0,0)"></g>
            <g transform="translate(0,0)">
                <g transform="translate(0,0)">
                    <g transform="translate(121.85819071,15)">
                        <g transform="translate(0,0)"></g>
                        <g transform="translate(0,0)">
                            <g transform="translate(0,0)">
                                <path id="mark1" class=" mark Shape1 rectangle" style="stroke:none;stroke-width:1;stroke-linecap:round;stroke-linejoin:miter;fill:rgb(166,206,227);text-anchor:start;cursor:pointer;pointer-events:all" d="M 0,-196.80233513 L 0.00288525,-211.49738409 A 211.5,211.5,0,0,1,207.75375342,39.63114863 L 193.3183519,36.87286429 A 196.80233513,196.80233513,0,0,0,0,-196.80233513 Z" data-datum="{&quot;_MARKID&quot;:&quot;rectangle&quot;,&quot;dessert_type&quot;:&quot;cookies&quot;,&quot;percent&quot;:28}"></path>
                            </g>
                            <g transform="translate(0,0)">
                                <path id="mark2" class=" mark Shape1 rectangle" style="stroke:none;stroke-width:1;stroke-linecap:round;stroke-linejoin:miter;fill:rgb(31,120,180);text-anchor:start;cursor:pointer;pointer-events:all" d="M 0,-180.23830012 L 0.00080218,-194.93152921 A 194.93596499,194.93596499,0,0,1,185.39511958,60.23852656 L 171.41613248,55.69448284 A 180.23830012,180.23830012,0,0,0,0,-180.23830012 Z" data-datum="{&quot;_MARKID&quot;:&quot;rectangle&quot;,&quot;dessert_type&quot;:&quot;candy&quot;,&quot;percent&quot;:30}"></path>
                            </g>
                            <g transform="translate(0,0)">
                                <path id="mark3" class=" mark Shape1 rectangle" style="stroke:none;stroke-width:1;stroke-linecap:round;stroke-linejoin:miter;fill:rgb(178,223,138);text-anchor:start;cursor:pointer;pointer-events:all" d="M 0,-163.67426512 L 0.00474463,-178.36767889 A 178.37192998,178.37192998,0,0,1,122.10398794,130.02754144 L 112.03931681,119.31185295 A 163.67426512,163.67426512,0,0,0,0,-163.67426512 Z" data-datum="{&quot;_MARKID&quot;:&quot;rectangle&quot;,&quot;dessert_type&quot;:&quot;cake&quot;,&quot;percent&quot;:38}"></path>
                            </g>
                            <g transform="translate(0,0)">
                                <path id="mark4" class=" mark Shape1 rectangle" style="stroke:none;stroke-width:1;stroke-linecap:round;stroke-linejoin:miter;fill:rgb(51,160,44);text-anchor:start;cursor:pointer;pointer-events:all" d="M 0,-147.11023011 L 0.00042459,-161.80887031 A 161.80789497,161.80789497,0,0,1,77.9515473,141.79333958 L 70.87106163,128.91389133 A 147.11023011,147.11023011,0,0,0,0,-147.11023011 Z" data-datum="{&quot;_MARKID&quot;:&quot;rectangle&quot;,&quot;dessert_type&quot;:&quot;ice cream&quot;,&quot;percent&quot;:42}"></path>
                            </g>
                            <g transform="translate(0,0)">
                                <path id="mark5" class=" mark Shape1 rectangle" style="stroke:none;stroke-width:1;stroke-linecap:round;stroke-linejoin:miter;fill:rgb(251,154,153);text-anchor:start;cursor:pointer;pointer-events:all" d="M 0,-130.5461951 l 0.0033 -14.7011 a 145.2439 145.2439 0 1 1 -44.8861 283.3824 l 4.5394 -13.9753 a 130.5462 130.5462 0 1 0 40.3434 -254.706 z" data-datum="{&quot;_MARKID&quot;:&quot;rectangle&quot;,&quot;dessert_type&quot;:&quot;pie&quot;,&quot;percent&quot;:55}"></path>
                            </g>
                            <g transform="translate(0,0)">
                                <path id="mark6" class=" mark Shape1 rectangle" opacity="1" style="stroke:none;stroke-width:1;stroke-linecap:round;stroke-linejoin:miter;fill:rgb(227,26,28);fill-opacity:1;text-anchor:start;cursor:pointer;pointer-events:all" d="M 0,-114 l -0.0034 -14.6752 a 128.6798 128.6798 0 1 1 -75.6327 232.7794 l 8.6361 -11.8888 a 114 114 0 1 0 67 -206.2154 z" data-datum="{&quot;_MARKID&quot;:&quot;rectangle&quot;,&quot;dessert_type&quot;:&quot;cheesecake&quot;,&quot;percent&quot;:60}"></path>
                            </g>
                            <g transform="translate(0,0)">
                                <path id="mark7" class=" mark Shape1 rectangle" style="stroke:none;stroke-width:1;stroke-linecap:round;stroke-linejoin:miter;fill:rgb(253,191,111);text-anchor:start;cursor:pointer;pointer-events:all" d="M 0,-97.41812508 l -0.0045 -14.6951 a 112.1158 112.1158 0 1 1 -106.624 146.7589 l 13.9766 -4.5405 a 97.4181 97.4181 0 1 0 92.6519 -127.5233 z" data-datum="{&quot;_MARKID&quot;:&quot;rectangle&quot;,&quot;dessert_type&quot;:&quot;brownie&quot;,&quot;percent&quot;:70}"></path>
                            </g>
                            <g transform="translate(0,0)">
                                <path id="mark8" class=" mark Shape1 rectangle" style="stroke:none;stroke-width:1;stroke-linecap:round;stroke-linejoin:miter;fill:rgb(255,127,0);text-anchor:start;cursor:pointer;pointer-events:all" d="M 0,-80.85409007 l 0.0003 -14.6957 a 95.5518 95.5518 0 1 1 -77.3033 39.3859 l 11.8938 8.64 a 80.8541 80.8541 0 1 0 65.4092 -33.4302 z" data-datum="{&quot;_MARKID&quot;:&quot;rectangle&quot;,&quot;dessert_type&quot;:&quot;pastry&quot;,&quot;percent&quot;:85}"></path>
                            </g>
                        </g>
                        <g transform="translate(0,0)">
                            <g transform="translate(0,0)">
                                <g transform="translate(0,-204.15116757)">
                                    <text id="mark1001" class=" mark Text2 text" style="stroke:none;stroke-width:1;stroke-linecap:round;stroke-linejoin:round;fill:rgb(166,206,227);text-anchor:start;font-family:Arial;font-size:14px" x="-93.541015625" y="4.622795573675017" data-datum="{&quot;_MARKID&quot;:&quot;text&quot;,&quot;dessert_type&quot;:&quot;cookies&quot;,&quot;percent&quot;:28}">cookies 28%</text>
                                </g>
                            </g>
                            <g transform="translate(0,0)">
                                <g transform="translate(0,-187.58713256)">
                                    <text id="mark1002" class=" mark Text2 text" style="stroke:none;stroke-width:1;stroke-linecap:round;stroke-linejoin:round;fill:rgb(31,120,180);text-anchor:start;font-family:Arial;font-size:14px" x="-83.4306640625" y="4.622795573675017" data-datum="{&quot;_MARKID&quot;:&quot;text&quot;,&quot;dessert_type&quot;:&quot;candy&quot;,&quot;percent&quot;:30}">candy 30%</text>
                                </g>
                            </g>
                            <g transform="translate(0,0)">
                                <g transform="translate(0,-171.02309755)">
                                    <text id="mark1003" class=" mark Text2 text" style="stroke:none;stroke-width:1;stroke-linecap:round;stroke-linejoin:round;fill:rgb(178,223,138);text-anchor:start;font-family:Arial;font-size:14px" x="-75.64453125" y="4.622795573675017" data-datum="{&quot;_MARKID&quot;:&quot;text&quot;,&quot;dessert_type&quot;:&quot;cake&quot;,&quot;percent&quot;:38}">cake 38%</text>
                                </g>
                            </g>
                            <g transform="translate(0,0)">
                                <g transform="translate(0,-154.45906254)">
                                    <text id="mark1004" class=" mark Text2 text" style="stroke:none;stroke-width:1;stroke-linecap:round;stroke-linejoin:round;fill:rgb(51,160,44);text-anchor:start;font-family:Arial;font-size:14px" x="-106.7548828125" y="4.622795573675017" data-datum="{&quot;_MARKID&quot;:&quot;text&quot;,&quot;dessert_type&quot;:&quot;ice cream&quot;,&quot;percent&quot;:42}">ice cream 42%</text>
                                </g>
                            </g>
                            <g transform="translate(0,0)">
                                <g transform="translate(0,-137.89502753)">
                                    <text id="mark1005" class=" mark Text2 text" style="stroke:none;stroke-width:1;stroke-linecap:round;stroke-linejoin:round;fill:rgb(251,154,153);text-anchor:start;font-family:Arial;font-size:14px" x="-64.7548828125" y="4.622795573675017" data-datum="{&quot;_MARKID&quot;:&quot;text&quot;,&quot;dessert_type&quot;:&quot;pie&quot;,&quot;percent&quot;:55}">pie 55%</text>
                                </g>
                            </g>
                            <g transform="translate(0,0)">
                                <g transform="translate(0,-121.33099252)">
                                    <text id="mark1006" class=" mark Text2 text" style="stroke:none;stroke-width:1;stroke-linecap:round;stroke-linejoin:round;fill:rgb(227,26,28);text-anchor:start;font-family:Arial;font-size:14px" x="-120.7890625" y="4.622795573675017" data-datum="{&quot;_MARKID&quot;:&quot;text&quot;,&quot;dessert_type&quot;:&quot;cheesecake&quot;,&quot;percent&quot;:60}">cheesecake 60%</text>
                                </g>
                            </g>
                            <g transform="translate(0,0)">
                                <g transform="translate(0,-104.76695751)">
                                    <text id="mark1007" class=" mark Text2 text" style="stroke:none;stroke-width:1;stroke-linecap:round;stroke-linejoin:round;fill:rgb(253,191,111);text-anchor:start;font-family:Arial;font-size:14px" x="-95.099609375" y="4.622795573675017" data-datum="{&quot;_MARKID&quot;:&quot;text&quot;,&quot;dessert_type&quot;:&quot;brownie&quot;,&quot;percent&quot;:70}">brownie 70%</text>
                                </g>
                            </g>
                            <g transform="translate(0,0)">
                                <g transform="translate(0,-88.2029225)">
                                    <text id="mark1008" class=" mark Text2 text" style="stroke:none;stroke-width:1;stroke-linecap:round;stroke-linejoin:round;fill:rgb(255,127,0);text-anchor:start;font-family:Arial;font-size:14px" x="-84.1962890625" y="4.622795573675017" data-datum="{&quot;_MARKID&quot;:&quot;text&quot;,&quot;dessert_type&quot;:&quot;pastry&quot;,&quot;percent&quot;:85}">pastry 85%</text>
                                </g>
                            </g>
                        </g>
                    </g>
                    <g transform="translate(0,0)"></g>
                </g>
            </g>
            <g transform="translate(0,0)">
                <g transform="translate(-156.28361858,15)">
                    <text id="mark2001" class=" mark Title" data-datum="{&quot;_MARKID&quot;:&quot;title1&quot;}" style="stroke:none;stroke-width:1;stroke-linecap:round;stroke-linejoin:round;fill:rgb(0,0,0);text-anchor:start;font-family:Impact;font-size:24px" x="-200.77830837408305" y="-41.850154858719">MOST REQUESTED DINER DESSERTS</text>
                </g>
            </g>
            <g transform="translate(0,0)">
                <g transform="translate(-156.28361858,15)">
                    <text id="mark2002" class=" mark Title" data-datum="{&quot;_MARKID&quot;:&quot;title2&quot;}" style="stroke:none;stroke-width:1;stroke-linecap:round;stroke-linejoin:round;fill:rgb(0,0,0);text-anchor:start;font-family:Comic Sans MS;font-size:14px" x="-132.51470693574268" y="-17.02377177455988">Based on Customer Receipts</text>
                </g>
            </g>
        </g>
    </g>
</svg>
